X:231
T: LUSTIG FROH IHR DEUTSCHEN BRUEDER
N: E1370
O: Europa, Mitteleuropa, Deutschland, Rheinland
R: Staende -, Soldaten -, Kriegs - Lied
M: 3/4
L: 1/8
K: F
FG | A3ABA | AGG2
GA | B3BcB | BAA2
cc | B3AdB | G2z2
FA | c2c2dc | BABd
cB | AGAcBA | Gcc2
GG | G3ABc | A4

@@@ Tune index: 4915
